X:1
T:The Brosna Slide #1
R:slide
S:Mike Long
O:Ireland
M:12/8
L:1/8
K:G
GFE | "G" D2 G G2 A     BAB d2 B | "D" A2 D FED      A2 D FED |\
      "G" D2 G G2 A     BAB d2 B | "D" A2 D      FED   "G" G3 :|
GBd | "G" g2 f efg "D" f2 e d2 B | "C" BcB A2 B "D" c2 d e2 f |\
      "G" g2 f efg "D" f2 e d2 B | "C" c2 A "D" F2  A  "G" G3 :|
